X: 1
T: The Scarlet Regiment  v.2
P: piffero secondo a0676
O: Bill Krug
F: http://ancients.sudburymuster.org/mus/med/pdf/scarletdC0.pdf
Z: 2020 John Chambers <jc:trillian.mit.edu>
M: 3/4
L: 1/8
K: D
G>G |\
F3 E/F/ G>E | F2 F2 FF | G2 EF GG | A2 GZ G>G |\
F3 E/F/ GA | B2 G2 A>G | FE DC A>G | G2 Fz :|
|: z2 |\
za/a/ a2 z2 | za/a/ a2 FG | AG/F/ EF G^G | A2 Gz GG |\
F3 E/F/ GA | B2 G2 A>G | FE DC A>G | G2 Fz :|


